X: 1497
T: Goodbye Katie Schottische
B: australian traditional tunes wiki
M:4/4
L:1/8
R: Schottische
Q: 1/4=100
K:G
V:1 
D>G|:"G"B4B<c B<c|d>g b>gd2[B2g2]|"D"(3fgf c>B"C"c2e2|"G"d2G>F G2D>G|
"G"B4B<c B<c|d>g b>gd2[B2g2]|"C"(3efe c>e "D"d>c A>F|"G"G2G>F G2B>d:|
|:"G"[B4g4]f/g/e"C" c2|"C"e2"G"d2d>B G>B|"D"d>B c>B "C"c>A F>A|"G"c<BG2G2d2|
[B4g4]f/g/e "C"c2|"C"e2"D"d2d>B G2|"D"d>B "C"(3gfe c>B A>F|"G"G2G2G2z2:|
% abcbook-tune_id 6342d53ae40b59b233bea50e


% abcbook-boost 0
% abcbook-tablature 
% abcbook-transpose 
% abcbook-lastupdated 1665324367927
% abcbook-soundfonts 
% abcbook-repeats 1
% NFF Book 2015

